!!!COM: Arthur Honegger
!!!OTL: [T605_Hon-w35p6-7m3-1h6m1-5]
**kern	**dynam	**kern	**dynam	**kern	**dynam	**kern	**dynam	**kern	**dynam
*grp:A	*grp:A	*grp:A	*grp:A	*grp:B	*grp:B	*grp:B	*grp:B	*grp:A	*grp:A
*part5	*	*part4	*	*part3	*	*part2	*	*part1	*
*staff5	*	*staff4	*	*staff3	*	*staff2	*	*staff1	*
*I"Contrabass	*	*I"Violoncello	*	*I"Viola	*	*I"Violin II	*	*I"Violin I	*
*I'Cb.	*	*I'Vc.	*	*I'Vla.	*	*I'Vln. II	*	*I'Vln. I	*
*clefF4	*	*clefF4	*	*clefC3	*	*clefG2	*	*clefG2	*
*ITrd7c12	*	*	*	*	*	*	*	*	*
*k[]	*	*k[]	*	*k[]	*	*k[]	*	*k[]	*
*C:	*	*C:	*	*C:	*	*C:	*	*C:	*
*M4/4	*	*M4/4	*	*M4/4	*	*M4/4	*	*M4/4	*
=94	=94	=94	=94	=94	=94	=94	=94	=94	=94
!	!	!	!	!	!	!	!	!LO:TX:t=[[half]=66]	!
!	!LO:DY:ed=brack	!	!LO:DY:ed=brack	!	!LO:DY:ed=brack	!	!LO:DY:ed=brack	!	!LO:DY:ed=brack
8C#X	f	8c#X	f	8dL 8a	f	8a 8ff#X	f	4aaan^	f
8r	.	8r	.	16r	.	8r	.	.	.
.	.	.	.	16dJk	.	.	.	.	.
4A^	.	4A^	.	12aL	.	8.r	.	4fff#X	.
.	.	.	.	12g#X	.	.	.	.	.
.	.	.	.	12f#XJ	.	.	.	.	.
.	.	.	.	.	.	16cc#X	.	.	.
4F#X	.	4F#X	.	8ddL	.	12ggL	.	4ccc#X	.
.	.	.	.	.	.	12aa	.	.	.
.	.	.	.	16r	.	.	.	.	.
.	.	.	.	.	.	12bb-XJ	.	.	.
.	.	.	.	16dJk	.	.	.	.	.
*	*	*	*	*Xtuplet	*	*	*	*	*
4C#	.	4C#X	.	12aL	.	8cc#L	.	4aaa^	.
.	.	.	.	12g#	.	.	.	.	.
.	.	.	.	.	.	16r	.	.	.
.	.	.	.	12f#J	.	.	.	.	.
.	.	.	.	.	.	16ccc#XJk	.	.	.
=95	=95	=95	=95	=95	=95	=95	=95	=95	=95
*	*	*	*	*	*	*Xtuplet	*	*	*
4A^	.	4A^	.	8ddL	.	12ggL	.	4fff#X	.
.	.	.	.	.	.	12aa	.	.	.
.	.	.	.	16r	.	.	.	.	.
.	.	.	.	.	.	12bb-XJ	.	.	.
.	.	.	.	16dJk	.	.	.	.	.
4F#X	.	4F#X	.	12aL	.	8cc#XL	.	4dddn	.
.	.	.	.	12g#X	.	.	.	.	.
.	.	.	.	.	.	16r	.	.	.
.	.	.	.	12f#XJ	.	.	.	.	.
.	.	.	.	.	.	16ccc#XJk	.	.	.
4D	.	4Dn	.	8ddL	.	12ggL	.	4aaa^	.
.	.	.	.	.	.	12aa	.	.	.
.	.	.	.	16r	.	.	.	.	.
.	.	.	.	.	.	12bb-J	.	.	.
.	.	.	.	16dJk	.	.	.	.	.
4A^	.	4A^	.	12aL	.	8cc#L	.	4fff#	.
.	.	.	.	12g#	.	.	.	.	.
.	.	.	.	.	.	16r	.	.	.
.	.	.	.	12f#J	.	.	.	.	.
.	.	.	.	.	.	16ccc#Jk	.	.	.
=96	=96	=96	=96	=96	=96	=96	=96	=96	=96
4F#X	.	4F#X	.	8ddL	.	12ggL	.	4ddd#X	.
.	.	.	.	.	.	12aa	.	.	.
.	.	.	.	16r	.	.	.	.	.
.	.	.	.	.	.	12bb-XJ	.	.	.
.	.	.	.	16dJk	.	.	.	.	.
4D#X	.	4D#X	.	12aL	.	8cc#XL	.	4aaa^	.
.	.	.	.	12g#X	.	.	.	.	.
.	.	.	.	.	.	16r	.	.	.
.	.	.	.	12f#XJ	.	.	.	.	.
.	.	.	.	.	.	16ccc#XJk	.	.	.
4A^	.	4A^	.	8ddL	.	12ggL	.	4fff#X	.
.	.	.	.	.	.	12aa	.	.	.
.	.	.	.	16r	.	.	.	.	.
.	.	.	.	.	.	12bb-J	.	.	.
.	.	.	.	16dJk	.	.	.	.	.
4F#	.	4F#	.	12aL	.	8cc#L	.	4eee	.
.	.	.	.	12g#	.	.	.	.	.
.	.	.	.	.	.	16r	.	.	.
.	.	.	.	12f#J	.	.	.	.	.
.	.	.	.	.	.	16ccc#Jk	.	.	.
!!linebreak:original
!!LO:REH:t=6
=97	=97	=97	=97	=97	=97	=97	=97	=97	=97
*	*	*	*	*	*	*	*	*grp:B	*grp:B
!	!	!	!	!	!	!	!	!LO:TX:a:t=Div.	!
4D#X	.	4D#X	.	4fn^ 4ccn	.	4ff#X^ 4ddd	.	4ggg#X^ 4bbbn	.
*	*	*	*	*clefG2	*	*	*	*	*
4D#	.	4D#	.	8r	.	8r	.	8r	.
!	!	!	!	!LO:TX:a:t=Div.	!	!LO:TX:a:t=Div.	!	!	!
.	.	.	.	((8g-X 8een	.	((8d-X 8g	.	((8b 8aa	.
4D#	.	4D#	.	8fnL 8ff#X))	.	8cnL 8a-X))	.	8ddL 8bb))	.
.	.	.	.	8f 8ff#	.	8c 8a-	.	8dd 8bb	.
4E	.	4E	.	8f 8ff#	.	8c 8a-	.	8dd 8bb	.
.	.	.	.	((8g-J 8ee	.	((8d-J 8g	.	((8bJ 8aa	.
=98	=98	=98	=98	=98	=98	=98	=98	=98	=98
4D#X	.	4D#X	.	8fnL 8ff#X))	.	8cL 8a-X))	.	8ddL 8bb))	.
.	.	.	.	8f 8ff#	.	8c 8a-	.	8dd 8bb	.
4D#	.	4D#	.	8f 8ff#	.	8c 8a-	.	8dd 8bb	.
.	.	.	.	8fJ 8ff#	.	8cJ 8a-	.	8ddJ 8bb	.
4D#	.	4D#	.	((4gn 4ee#X	.	((4dn 4b-X	.	((4cc#X 4aa	.
4AA	.	4A	.	8bn 8ff#))	.	8f 8dd-X))	.	8dd 8gg#X))	.
.	.	.	.	((8g-X 8ee#	.	((8d-X 8b-	.	((8cc# 8aa	.
=99	=99	=99	=99	=99	=99	=99	=99	=99	=99
4GG#X	.	4GG#X	.	4fn 4ff#X))	.	4c 4a-X))	.	4dd 4bb))	.
4GG#	.	4GG#	.	8r	.	8r	.	8r	.
.	.	.	.	((8g-X 8een	.	((8d-X 8g	.	((8b 8aa	.
4GG#	.	4GG#	.	8fL 8ff#))	.	8cL 8a-))	.	8ddL 8bb))	.
.	.	.	.	8f 8ff#	.	8c 8a-	.	8dd 8bb	.
4AA	.	4AA	.	8f 8ff#	.	8c 8a-	.	8dd 8bb	.
.	.	.	.	((8g-J 8ee	.	((8d-J 8g	.	((8bJ 8aa	.
=100	=100	=100	=100	=100	=100	=100	=100	=100	=100
4GG#X	.	4GG#X	.	8fnL 8ff#X))	.	8cL 8a-X))	.	8ddL 8bb))	.
.	.	.	.	8f 8ff#	.	8c 8a-	.	8dd 8bb	.
4GG#	.	4GG#	.	8f 8ff#	.	8c 8a-	.	8dd 8bb	.
.	.	.	.	8fJ 8ff#	.	8cJ 8a-	.	8ddJ 8bb	.
4GG#	.	4GG#	.	((4gn 4ee#X	.	((4d 4b-X	.	((4cc#X 4aa	.
4DDn	.	4Dn	.	8bn 8ff#))	.	8f 8dd-X))	.	8dd 8gg#X))	.
*	*	*	*	*clefC3	*	*	*	*	*
.	.	.	.	((8D 8Gn	.	((8B-X 8c#X	.	((8e#X 8a	.
=101	=101	=101	=101	=101	=101	=101	=101	=101	=101
4CC#X	.	4CC#X	.	4C 4Fn))	.	4A-X 4d))	.	4f#X 4b))	.
4CC#	.	4CC#	.	8r	.	8r	.	8r	.
.	.	.	.	((8D-X 8G-X	.	((8Gn 8B	.	((8e#X 8a	.
!	!	!	!	!	!	!	!	!LO:TX:a:i:t=diminundo 	!LO:HP:ed=brack
4CC#	.	4CC#	.	8CL 8F))	.	8A-L 8d))	.	8f#L 8b))	.
.	.	.	.	8C 8F	.	8A- 8d	.	8f# 8b	.
/4DD	.	4CC#	.	8C 8F	.	8A- 8d	.	8f# 8b	.
.	.	.	.	((8D-J 8G-	.	((8GJ 8B	.	((8e#J 8a	.
=	=	=	=	=	=	=	=	=	=
*-	*-	*-	*-	*-	*-	*-	*-	*-	*-
!!!system-decoration: [(s1,s2,s3,s4,s5)]
!!!EED: Daniel Wright
!!!EEV: 2021/08/23
!!!EED2: Rafael Laurindo
!!!EEV2: 2022/02/17
